Adwaita++/actions/22/bitmap-trace.svg

<svg height="22" viewBox="0 0 22 22" width="22" xmlns="http://www.w3.org/2000/svg">
  <path d="m2 2c-1 0-1 1-1 1v10c0 1 1 1 1 1h7v-1.417969l.5820312-.582031h-6.5820312v-2.5l2.5-2.9375 3.3125 3.75 2.125-2.0625 1.197266 1.1972656.158203-.1582031 1-1 .707031-.7070313 1 1v-5.5820312c0-1-1-1-1-1zm12 6.9960938-1 1-1 1.0000002-2 2v2h2l.59375-.59375.40625-.40625 1-1 1-1 1-1z" fill="#444" transform="translate(3 3)"/>
</svg>

<svg xmlns="http://www.w3.org/2000/svg" width="22" height="22" viewBox="0 0 22 22">
 <defs>
  <style id="current-color-scheme" type="text/css">
   .ColorScheme-Text { color:#444444; } .ColorScheme-Highlight { color:#4285f4; }
  </style>
 </defs>
 <path style="fill:currentColor" class="ColorScheme-Text" d="M 2 2 C 1 2 1 3 1 3 L 1 13 C 1 14 2 14 2 14 L 9 14 L 9 12.582031 L 9.5820312 12 L 3 12 L 3 9.5 L 5.5 6.5625 L 8.8125 10.3125 L 10.9375 8.25 L 12.134766 9.4472656 L 12.292969 9.2890625 L 13.292969 8.2890625 L 14 7.5820312 L 15 8.5820312 L 15 3 C 15 2 14 2 14 2 L 2 2 z M 14 8.9960938 L 13 9.9960938 L 12 10.996094 L 10 12.996094 L 10 14.996094 L 12 14.996094 L 12.59375 14.402344 L 13 13.996094 L 14 12.996094 L 15 11.996094 L 16 10.996094 L 14 8.9960938 z" transform="translate(3 3)"/>
</svg>
